X:1
T:Selby, CM
T:Selby, CM
T:Alfred James Eyre, 1889
T:Public Domain Courtesy of the Cyber Hymnal™
C:Alfred James Eyre, 1889
Z:Public Domain
Z:Courtesy of the Cyber Hymnal™
%%score ( 1 2 ) ( 3 4 )
L:1/8
Q:1/4=108
M:none
K:G
V:1 treble 
V:2 treble 
V:3 bass 
V:4 bass 
V:1
 [GB]2 [GB][GB] [GB]2 [Gc]2 | [Gd]2 [DF]2 [DG]2 [=FG]2 | [Ee]3 [Ed] [Ac]2 [GB]2 | %3
 ([GB]4 [FA]2) [=FA]2 | [EA]3 [EA] [Ac]2 [Ae]2 | [Ae]2 [Ad]2 [Ac]2 [GB]2 | [EA]2 E2 F3 z G | %7
 [DG]8 |] %8
V:2
 x8 | x8 | x8 | x8 | x8 | x8 | x2 E2 D2 D2 x | x8 |] %8
V:3
 [G,D]2 [G,D][F,D] [E,E]2 [E,C]2 | [D,B,]2 [C,A,]2 [B,,G,]2 [B,,D]2 | %2
 [C,C]3 [C,B,] [C,A,]2 [^C,E]2 | [B,,D]6 D2 | [CE]3 [CE] [A,E]2 [G,C]2 | %5
 [F,A,]2 [F,D]2 [E,E]2 [G,D]2 | C3 z B, [D,A,]2 [D,C]2 | [G,,B,]8 |] %8
V:4
 x8 | x8 | x8 | x6 D2 | x8 | x8 | C,2 C,2 x5 | x8 |] %8

